img/icon/menu-icon/test.svg

<svg width="24" height="24" viewBox="0 0 24 24" fill="none" xmlns="http://www.w3.org/2000/svg">
<path d="M18.5556 15.3333V7.36444C18.5556 6.77556 18.3211 6.21 17.9044 5.79333L14.7622 2.65111C14.3456 2.23444 13.78 2 13.1911 2H5.22222C3.99444 2 3 2.99444 3 4.22222V19.7778C3 21.0056 3.99444 22 5.22222 22H11.8889M20.7778 18.6667L17.4444 22L15.2222 19.7778M6.33333 10.8889H13M6.33333 14.2222H13M6.33333 17.5556H11.1444M18.5556 7.55556H14.1111C13.4978 7.55556 13 7.05778 13 6.44444V2" stroke="#848E9F" stroke-width="1.5" stroke-linecap="round" stroke-linejoin="round"/>
</svg>

<svg width="24" height="24" fill="none" xmlns="http://www.w3.org/2000/svg"><path d="M18.556 15.333V7.364a2.22 2.22 0 0 0-.652-1.57L14.762 2.65a2.223 2.223 0 0 0-1.57-.65h-7.97A2.222 2.222 0 0 0 3 4.222v15.556A2.22 2.22 0 0 0 5.222 22h6.667m8.889-3.333L17.444 22l-2.222-2.222m-8.889-8.89H13m-6.667 3.334H13m-6.667 3.334h4.811m7.412-10H14.11A1.112 1.112 0 0 1 13 6.444V2" stroke="#848E9F" stroke-width="1.5" stroke-linecap="round" stroke-linejoin="round"/></svg>
